!!!COM: Gaspar van Weerbeke
!!!CDT: ~1450-~1517
!!!OTL: Ave regina celorum
!!!AGN: Motet
!!!SCT: Gas0403
!!!SCA: Gas0403
!!!voices: 4
**kern	**text	**kern	**text	**kern	**text	**kern	**text
*part4	*part4	*part3	*part3	*part2	*part2	*part1	*part1
*staff4	*staff4	*staff3	*staff3	*staff2	*staff2	*staff1	*staff1
*I"Bassus	*	*I"Tenor	*	*I"Altus	*	*I"Superius	*
*I'B	*	*I'T	*	*I'A	*	*I'S	*
*>[A,B,C,D]	*>[A,B,C,D]	*>[A,B,C,D]	*>[A,B,C,D]	*>[A,B,C,D]	*>[A,B,C,D]	*>[A,B,C,D]	*>[A,B,C,D]
*>AveRegina[A]	*>AveRegina[A]	*>AveRegina[A]	*>AveRegina[A]	*>AveRegina[A]	*>AveRegina[A]	*>AveRegina[A]	*>AveRegina[A]
*>Gaude[B]	*>Gaude[B]	*>Gaude[B]	*>Gaude[B]	*>Gaude[B]	*>Gaude[B]	*>Gaude[B]	*>Gaude[B]
*>Vale[C]	*>Vale[C]	*>Vale[C]	*>Vale[C]	*>Vale[C]	*>Vale[C]	*>Vale[C]	*>Vale[C]
*>EtProNobis[D]	*>EtProNobis[D]	*>EtProNobis[D]	*>EtProNobis[D]	*>EtProNobis[D]	*>EtProNobis[D]	*>EtProNobis[D]	*>EtProNobis[D]
*clefF4	*	*clefF4	*	*clefGv2	*	*clefGv2	*
*k[b-]	*	*k[b-]	*	*k[b-]	*	*k[b-]	*
*d:	*	*d:	*	*d:	*	*d:	*
*M3/2	*	*M3/2	*	*M3/2	*	*M3/2	*
*omet(O)	*	*omet(O)	*	*omet(O)	*	*omet(O)	*
!!section: Ave regina
=1	=1	=1	=1	=1	=1	=1	=1
1.r	.	1.r	.	2F	A-	[1.f	A-
.	.	.	.	4.F	.	.	.
.	.	.	.	8G	.	.	.
.	.	.	.	4A	.	.	.
.	.	.	.	[[4B-y	.	.	.
=2	=2	=2	=2	=2	=2	=2	=2
1.r	.	1.r	.	8B-L]	.	1.f]	.
.	.	.	.	8cJ	.	.	.
.	.	.	.	2d	.	.	.
.	.	.	.	8cL	.	.	.
.	.	.	.	8B-yJ	.	.	.
.	.	.	.	4A	.	.	.
.	.	.	.	4B-y	.	.	.
=3	=3	=3	=3	=3	=3	=3	=3
1.r	.	1.r	.	4c	.	2.e	.
.	.	.	.	4.C	.	.	.
.	.	.	.	8D	.	.	.
.	.	.	.	4E	.	4c	.
.	.	.	.	4F	.	2d	.
.	.	.	.	4G	.	.	.
=4	=4	=4	=4	=4	=4	=4	=4
1.r	.	1.r	.	4A	.	8cL	.
.	.	.	.	.	.	8B-y	.
.	.	.	.	2c	.	8A	.
.	.	.	.	.	.	8GJ	.
.	.	.	.	.	.	4F	.
.	.	.	.	4A	.	2f	.
.	.	.	.	2G	.	.	.
.	.	.	.	.	.	4e	.
!!LO:LB:g=original
=5	=5	=5	=5	=5	=5	=5	=5
2FF	A-	[1.F	A-	1F	-ve	1f	ve
*col	*	*	*	*	*	*	*
4.FF	.	.	.	.	.	.	.
8GG	.	.	.	.	.	.	.
*Xcol	*	*	*	*	*	*	*
4AA	.	.	.	2r	.	2r	.
[4BB-y	.	.	.	.	.	.	.
=6	=6	=6	=6	=6	=6	=6	=6
8BB-]L	.	1.F]	.	1.r	.	1.r	.
8AA	.	.	.	.	.	.	.
8BB-y	.	.	.	.	.	.	.
8AAJ	.	.	.	.	.	.	.
4FF	.	.	.	.	.	.	.
4BB-y	.	.	.	.	.	.	.
4AA	.	.	.	.	.	.	.
4BB-y	.	.	.	.	.	.	.
=7	=7	=7	=7	=7	=7	=7	=7
4.C	.	1E	.	1.r	.	1.r	.
8BB-y	.	.	.	.	.	.	.
4GG	.	.	.	.	.	.	.
2C	.	.	.	.	.	.	.
.	.	2D	.	.	.	.	.
4BB-y	.	.	.	.	.	.	.
=8	=8	=8	=8	=8	=8	=8	=8
4.C	.	4.E	.	1.r	.	1.r	.
8AA	.	8C	.	.	.	.	.
8BB-yL	.	8DL	.	.	.	.	.
8CJ	.	8CJ	.	.	.	.	.
4AA	.	2F	.	.	.	.	.
2GG	.	.	.	.	.	.	.
.	.	4E	.	.	.	.	.
!!LO:LB:g=original
=9	=9	=9	=9	=9	=9	=9	=9
2FF	-ve	1.F	ve	2.C	re-	2A	re-
4.FF	re-	.	.	.	.	4.A	.
.	.	.	.	4D	.	.	.
8GG	.	.	.	.	.	8B-y	.
4AA	.	.	.	4C	.	4c	.
*	*	*	*	*col	*	*	*
4BB-y	.	.	.	[4F	.	4d	.
=10	=10	=10	=10	=10	=10	=10	=10
4AA	.	1.F	re-	8F]L	.	4c	.
.	.	.	.	8GJ	.	.	.
*	*	*	*	*Xcol	*	*	*
4FF	.	.	.	4A	.	2f	.
*lig	*	*	*	*	*	*	*
2BB-y	.	.	.	4D	.	.	.
.	.	.	.	4BB-y	.	8eL	.
.	.	.	.	.	.	8dJ	.
2AA	.	.	.	2C	.	2c	.
*Xlig	*	*	*	*	*	*	*
=11	=11	=11	=11	=11	=11	=11	=11
*	*	*lig	*	*	*	*	*
2GG	-gi-	[1.G	-gi-	2.D	-gi-	2B-y	-gi-
*col	*	*	*	*	*	*	*
4.GG	.	.	.	.	.	4.B-y	.
.	.	.	.	4E	.	.	.
8AA	.	.	.	.	.	8c	.
*Xcol	*	*	*	*	*	*	*
4BB-y	.	.	.	4D	.	4d	.
*	*	*	*	*col	*	*	*
4C	.	.	.	[4G	.	4e	.
=12	=12	=12	=12	=12	=12	=12	=12
4BB-y	.	1.G]	.	8G]L	.	4d	.
.	.	.	.	8AJ	.	.	.
*	*	*	*	*Xcol	*	*	*
4GG	.	.	.	4B-y	.	2g	.
*lig	*	*	*	*	*	*	*
2C	.	.	.	4c	.	.	.
.	.	.	.	4C	.	8fL	.
.	.	.	.	.	.	8eJ	.
2BB-y	.	.	.	2D	.	2d	.
*Xlig	*	*	*	*	*	*	*
!!LO:LB:g=original
=13	=13	=13	=13	=13	=13	=13	=13
2AA	-na	[1.A	-na	2.E	-na	2c	-na
*	*	*	*	*	*	*col	*
*col	*	*	*	*	*	*	*
4.AA	.	.	.	.	.	4.c	.
.	.	.	.	4F	.	.	.
8BB-y	.	.	.	.	.	8d	.
*Xcol	*	*	*	*	*	*Xcol	*
4C	.	.	.	4E	.	4e	.
4D	.	.	.	4D	.	[4f	.
=14	=14	=14	=14	=14	=14	=14	=14
4C	.	1A]	.	4E	.	8f]L	.
*	*	*Xlig	*	*	*	*	*
.	.	.	.	.	.	8eJ	.
*	*	*	*	*col	*	*	*
4AA	.	.	.	4.A	.	4c	.
4D	.	.	.	.	.	4f	.
.	.	.	.	8B-y	.	.	.
*	*	*	*	*Xcol	*	*	*
4C	.	.	.	4c	.	8eL	.
.	.	.	.	.	.	8fJ	.
2BB-y	.	2G	-ce-	4d	.	8gL	.
.	.	.	.	.	.	8f	.
.	.	.	.	4D	.	8e	.
.	.	.	.	.	.	8dJ	.
=15	=15	=15	=15	=15	=15	=15	=15
2AA	.	1A	.	2E	.	2c	.
2r	.	.	.	4C	.	4e	ce-
.	.	.	.	4D	.	4f	.
2GG	ce-	2B-y	-lo-	2r	.	2g	-lo-
=16	=16	=16	=16	=16	=16	=16	=16
4AA	.	2c	.	2A	ce-	4e	.
4FF	.	.	.	.	.	4a	.
4GG	.	4B-y	.	4B-y	.	4g	.
4AA	.	4A	.	4c	.	2f	.
4BB-y	.	2G	.	4d	.	.	.
4C	.	.	.	4c	.	4e	.
!!LO:PB:g=original
=17	=17	=17	=17	=17	=17	=17	=17
2.D	-lo-	1F	-rum,	2.A	-lo-	2f	-rum,
.	.	.	.	.	.	2r	.
4BB-y	.	.	.	4d	.	.	.
*col	*	*	*	*	*	*	*
4.E-i	.	2r	.	4B-y	.	2r	.
.	.	.	.	4c	.	.	.
8D	.	.	.	.	.	.	.
*Xcol	*	*	*	*	*	*	*
=18	=18	=18	=18	=18	=18	=18	=18
*	*	*	*	*col	*	*	*
4.BB-y	.	1.r	.	4.d	.	1f	a-
8AA	.	.	.	8c	.	.	.
*	*	*	*	*Xcol	*	*	*
4BB-y	.	.	.	4B-y	.	.	.
4D	.	.	.	4F	.	.	.
2C	.	.	.	4G	.	2e	.
.	.	.	.	4A	.	.	.
=19	=19	=19	=19	=19	=19	=19	=19
*	*	*col	*	*	*	*	*
2BB-y	.	[1.F	a-	4.B-y	.	2d	.
.	.	.	.	8c	.	.	.
[1FF	-rum,	.	.	2A	.	1c	.
*	*	*	*	*col	*	*	*
.	.	.	.	4.A	.	.	.
.	.	.	.	8B-y	.	.	.
*	*	*	*	*Xcol	*	*	*
=20	=20	=20	=20	=20	=20	=20	=20
*	*	*	*	*	*	*lig	*
2FF]	.	2F]	.	4c	.	2A	-ve
.	.	.	.	2d	.	.	.
*	*	*lig	*	*	*	*	*
2r	.	2E	.	.	.	2.G	.
*	*	*	*	*	*	*Xlig	*
.	.	.	.	2c	.	.	.
2GG	a-	2D	.	.	.	.	.
*	*	*Xcol	*	*	*	*	*
*	*	*Xlig	*	*	*	*	*
.	.	.	.	4B-y	.	[4g	do-
!!LO:LB:g=original
=21	=21	=21	=21	=21	=21	=21	=21
2.C	-ve	4E	.	2c	-rum,	4g]	.
*	*	*lig	*	*	*	*	*
.	.	2G	ve	.	.	2e	.
.	.	.	.	4G	.	.	.
4AA	.	2F	.	4A	.	4c	.
*	*	*Xlig	*	*	*	*	*
4BB-y	.	.	.	2G	.	4d	.
4C	.	4E	.	.	.	4e	.
=22	=22	=22	=22	=22	=22	=22	=22
*	*	*	*	*	*	*col	*
2.D	do-	2F	.	2r	.	4.A	.
.	.	.	.	.	.	8B-y	.
*	*	*	*	*	*	*Xcol	*
.	.	2F	do-	2r	.	4A	.
4F	.	.	.	.	.	2d	-mi-
2E	-mi-	2G	-mi-	2C	a-	.	.
.	.	.	.	.	.	4c	.
=23	=23	=23	=23	=23	=23	=23	=23
4.D	-na	1A	-na	2F	-ve	4.d	-na
8C	.	.	.	.	.	8e	.
8DL	.	.	.	2r	.	8fL	.
8C	.	.	.	.	.	8e	.
8D	.	.	.	.	.	8f	.
8CJ	.	.	.	.	.	8eJ	.
4AA	.	2A	an-	[2c	do-	4c	.
4FF	.	.	.	.	.	4f	.
=24	=24	=24	=24	=24	=24	=24	=24
4C	an-	1G	-ge-	4c]	.	4e	.
8BB-y	.	.	.	8d	.	8d	.
4C	-ge-	.	.	4c	.	4e	.
8D	.	.	.	16B-yLL	.	8f	.
.	.	.	.	16AJJ	.	.	.
4E	-lo-	.	.	4G	-mi-	4g	.
*col	*	*	*	*	*	*	*
4.F	.	2A	.	2F	-na	2c	.
8E	.	.	.	.	.	.	.
*Xcol	*	*	*	*	*	*	*
!!LO:LB:g=original
=25	=25	=25	=25	=25	=25	=25	=25
8DL	.	2B-y	-lo-	2r	.	4f	an-
8CJ	.	.	.	.	.	.	.
4BB-y	.	.	.	.	.	4g	-ge-
4AA	.	1c	.	4C	an-	2.a	-lo-
4FF	-rum,	.	.	2F	-ge-	.	.
2r	.	.	.	.	.	.	.
.	.	.	.	8EL	.	8gL	.
.	.	.	.	8DJ	.	8fJ	.
=26	=26	=26	=26	=26	=26	=26	=26
2r	.	4c	.	4C	.	4e	.
.	.	4B-y	.	2E	-lo-	2g	.
4r	.	4c	.	.	.	.	.
*	*edit	*	*	*	*	*	*
4FF	an-	4A	.	4F	.	2f	.
2C	-ge-	2G	.	4C	.	.	.
.	.	.	.	[4c	.	4e	.
=27	=27	=27	=27	=27	=27	=27	=27
4FF	.	2F	-rum,	4c]	.	1f	-rum,
4BB-y	-lo-	.	.	4d	.	.	.
4AA	.	2r	.	4c	.	.	.
8GGL	.	.	.	4A	.	.	.
8FFJ	.	.	.	.	.	.	.
2EE	.	2r	.	2G	.	2r	.
=28	=28	=28	=28	=28	=28	=28	=28
*	*	*lig	*	*	*	*	*
*	*	*col	*	*	*	*	*
2FF	-rum,	1F	sal-	4.A	-rum,	2c	sal-
.	.	.	.	8G	.	.	.
2r	.	.	.	8FL	.	2d	.
.	.	.	.	8EJ	.	.	.
.	.	.	.	4D	.	.	.
*	*	*	*	*col	*	*	*
2r	.	[2G	.	4.C	.	4.e	.
.	.	.	.	8D	.	8f	.
*	*	*	*	*Xcol	*	*	*
!!LO:LB:g=original
=29	=29	=29	=29	=29	=29	=29	=29
*	*Xedit	*	*	*	*	*	*
2EE	sal-	2G]	.	2E	.	2g	.
*	*	*	*	*	*	*col	*
1FF	.	1A	.	2r	.	4.f	.
*	*	*Xcol	*	*	*	*	*
*	*	*Xlig	*	*	*	*	*
.	.	.	.	.	.	8g	.
*	*	*	*	*	*	*Xcol	*
.	.	.	.	2C	sal-	2a	.
=30	=30	=30	=30	=30	=30	=30	=30
2GG	.	1B-y	.	2BB-X	.	4.g	.
.	.	.	.	.	.	8f	.
*	*	*	*	*col	*	*	*
2BB-y	.	.	.	4.D	.	2d	.
.	.	.	.	8E	.	.	.
*	*	*	*	*Xcol	*	*	*
2FF	.	2A	.	4.F	.	4c	.
.	.	.	.	.	.	4f	.
.	.	.	.	8E	.	.	.
=31	=31	=31	=31	=31	=31	=31	=31
1C	.	4G	.	4C	.	4e	.
.	.	2c	.	4AA	.	2a	.
.	.	.	.	4r	.	.	.
.	.	2A	.	4C	.	4f	.
2BB-y	.	.	.	2D	.	2g	.
.	.	4G	.	.	.	.	.
=32	=32	=32	=32	=32	=32	=32	=32
1AA	-ve	1A	-ve	1E	-ve	2c	-ve
.	.	.	.	.	.	2c	ra-
*col	*	*	*	*col	*	*	*
4.D	ra-	2r	.	4.F	ra-	4.A	.
8C	.	.	.	8G	.	8B-y	.
*Xcol	*	*	*	*Xcol	*	*	*
!!LO:PB:g=original
=33	=33	=33	=33	=33	=33	=33	=33
4AA	.	1.r	.	4A	.	4c	.
4GG	.	.	.	4B-y	.	4d	.
*lig	*	*	*	*	*	*	*
2C	-dix	.	.	4G	.	4e	.
.	.	.	.	2c	.	4c	.
2D	.	.	.	.	.	2f	-dix
*Xlig	*	*	*	*	*	*	*
.	.	.	.	4Bni	.	.	.
=34	=34	=34	=34	=34	=34	=34	=34
*	*	*lig	*	*	*	*	*
*	*	*col	*	*	*	*	*
*col	*	*	*	*	*	*	*
4.C	san-	1c	ra-	2c	-dix	4.e	san-
8D	.	.	.	.	.	8f	.
*Xcol	*	*	*	*	*	*	*
4E	.	.	.	2r	.	4g	.
4AA	.	.	.	.	.	4a	.
*	*	*	*	*	*	*col	*
4.BB-y	.	[[2B-y	.	2r	.	4.d	.
8C	.	.	.	.	.	8e	.
*	*	*	*	*	*	*Xcol	*
=35	=35	=35	=35	=35	=35	=35	=35
4D	.	2B-]	.	1.r	.	4f	.
4GG	.	.	.	.	.	4g	.
*	*	*	*	*	*	*col	*
4.AA	.	1A	.	.	.	4.c	.
*	*	*Xcol	*	*	*	*	*
*	*	*Xlig	*	*	*	*	*
8BB-y	.	.	.	.	.	8d	.
*	*	*	*	*	*	*Xcol	*
4C	.	.	.	.	.	4e	.
4FF	.	.	.	.	.	4f	.
=36	=36	=36	=36	=36	=36	=36	=36
*col	*	*	*	*	*	*	*
4.GG	.	1G	-dix	2r	.	4.B-y	.
8AA	.	.	.	.	.	8c	.
*Xcol	*	*	*	*	*	*	*
4BB-y	.	.	.	2r	.	4d	.
4C	.	.	.	.	.	4e	.
4.FF	.	[2F	san-	4.c	san-	4.A	.
8GG	.	.	.	8B-y	.	8B-y	.
!!LO:LB:g=original
=37	=37	=37	=37	=37	=37	=37	=37
8AAL	.	4F]	.	4A	.	8cL	.
8BB-yJ	.	.	.	.	.	8dJ	.
4C	.	4E	.	4G	.	4e	.
*	*	*lig	*	*	*	*	*
4AA	.	2F	.	4A	.	4c	.
*	*	*	*	*col	*	*	*
4FF	.	.	.	4.c	.	2f	.
2C	.	2G	.	.	.	.	.
*	*	*Xlig	*	*	*	*	*
.	.	.	.	8B-y	.	.	.
*	*	*	*	*Xcol	*	*	*
.	.	.	.	4c	.	4e	.
=38	=38	=38	=38	=38	=38	=38	=38
*lig	*	*	*	*	*	*	*
2D	-cta,	[1.F	-cta,	2A	-cta,	1.f	-cta,
1BB-y	.	.	.	4B-y	.	.	.
*Xlig	*	*	*	*	*	*	*
.	.	.	.	4.d	.	.	.
.	.	.	.	8c	.	.	.
.	.	.	.	4B-y	.	.	.
=39	=39	=39	=39	=39	=39	=39	=39
1.FF	.	1.F]	.	1A	.	1.r	.
.	.	.	.	2c	ex	.	.
=40	=40	=40	=40	=40	=40	=40	=40
1.r	.	1.r	.	4B-y	qua	2g	ex
.	.	.	.	4c	.	.	.
.	.	.	.	4A	.	4f	qua
.	.	.	.	4G	.	4g	.
*	*	*	*	*	*edit	*	*
.	.	.	.	4c	mun-	4e	.
.	.	.	.	4B-y	.	4d	.
!!LO:LB:g=original
=41	=41	=41	=41	=41	=41	=41	=41
*	*	*	*	*col	*	*	*
1.r	.	1.r	.	4.G	.	4r	.
.	.	.	.	.	.	4g	mun-
.	.	.	.	8F	.	.	.
*	*	*	*	*Xcol	*	*	*
.	.	.	.	4.D	.	4f	.
*	*	*	*	*	*	*col	*
.	.	.	.	.	.	4.d	.
.	.	.	.	8E	.	.	.
.	.	.	.	4.F	.	.	.
.	.	.	.	.	.	8c	.
*	*	*	*	*	*	*Xcol	*
.	.	.	.	.	.	[4A	.
.	.	.	.	8E	.	.	.
=42	=42	=42	=42	=42	=42	=42	=42
2r	.	1.r	.	2C	.	8A]L	.
.	.	.	.	.	.	8B-yJ	.
.	.	.	.	.	.	4.c	.
2r	.	.	.	2C	-do,	.	.
.	.	.	.	.	.	8B-y	.
.	.	.	.	.	.	4.G	.
*col	*	*	*	*	*	*	*
[2GG	ex	.	.	2r	.	.	.
.	.	.	.	.	.	8AL	.
.	.	.	.	.	.	8B-y	.
.	.	.	.	.	.	8cJ	.
=43	=43	=43	=43	=43	=43	=43	=43
*	*	*	*	*	*Xedit	*	*
1.GG]	.	1.r	.	2.G	mun-	4d	.
*Xcol	*	*	*	*	*	*	*
.	.	.	.	.	.	4e	.
.	.	.	.	.	.	4d	.
.	.	.	.	4E	.	2c	.
.	.	.	.	2D	.	.	.
.	.	.	.	.	.	4Bni	.
=44	=44	=44	=44	=44	=44	=44	=44
2AA	qua	1.r	.	2C	-do,	2c	-do,
*	*edit	*	*	*	*edit	*	*edit
4BB-y	mun-	.	.	4D	mun-	4G	mun-
4C	.	.	.	4E	.	4A	.
*	*	*	*	*	*	*col	*
*	*	*	*	*col	*	*	*
*col	*	*	*	*	*	*	*
4.D	.	.	.	4.F	.	4.B-y	.
8BB-y	.	.	.	8D	.	8G	.
*Xcol	*	*	*	*Xcol	*	*Xcol	*
!!LO:LB:g=original
=45	=45	=45	=45	=45	=45	=45	=45
4C	.	1.r	.	4E	.	4A	.
4D	.	.	.	4F	.	4B-y	.
*	*	*	*	*	*	*col	*
*col	*	*	*	*	*	*	*
4.E	.	.	.	4.G	.	4.c	.
8C	.	.	.	8E	.	8A	.
*Xcol	*	*	*	*	*	*Xcol	*
4D	.	.	.	4F	.	4B-y	.
4E	.	.	.	4G	.	4c	.
=46	=46	=46	=46	=46	=46	=46	=46
*	*	*	*	*col	*	*	*
*col	*	*	*	*	*	*	*
4.F	.	1.r	.	4.A	.	4d	.
.	.	.	.	.	.	4f	.
8E	.	.	.	8B-y	.	.	.
*Xcol	*	*	*	*Xcol	*	*	*
4C	.	.	.	4c	.	4e	.
4D	.	.	.	2A	.	2d	.
2E	.	.	.	.	.	.	.
.	.	.	.	4G	.	4c#i	.
=47	=47	=47	=47	=47	=47	=47	=47
2D	-do,	1F	-ex	2A	-do,	2d	-do,
2r	.	.	.	2A	ex	4c	ex
.	.	.	.	.	.	4.d	qua
2r	.	2D	qua	4B-y	qua	.	.
.	.	.	.	.	.	8e	.
.	.	.	.	4A	.	4f	.
=48	=48	=48	=48	=48	=48	=48	=48
2r	.	4E	.	4G	.	4g	.
.	.	4C	.	2c	.	4e	.
*	*Xedit	*	*	*	*	*	*
2GG	mun-	2D	.	.	.	2d	.
.	.	.	.	4Bnj	.	.	.
4AA	.	2C	mun-	2c	.	2r	.
[4C	.	.	.	.	.	.	.
=49	=49	=49	=49	=49	=49	=49	=49
4C]	.	4D	.	4A	.	2r	.
4BB-y	.	2F	.	4B-y	.	.	.
2C	.	.	.	2G	.	2c	mun-
.	.	4E	.	.	.	.	.
*	*	*lig	*	*	*	*	*
2FF	-do	2F	-do	2r	.	4d	.
.	.	.	.	.	.	[4f	.
!!LO:PB:g=original
=50	=50	=50	=50	=50	=50	=50	=50
2r	.	2G	.	2C	mun-	4f]	.
*	*	*Xlig	*	*	*	*	*
.	.	.	.	.	.	4e	.
2r	.	2F	.	4D	.	2f	-do
.	.	.	.	2F	.	.	.
2C	lux	2r	.	.	.	4r	.
*	*	*	*	*	*	*	*Xedit
.	.	.	.	4E	.	4g	lux
=51	=51	=51	=51	=51	=51	=51	=51
4FF	est	4r	.	4F	-do	2a	est
2F	.	4F	lux	4A	.	.	.
.	.	2G	est	2G	.	2b-y	.
4E	.	.	.	.	.	.	.
*	*	*	*	*	*Xedit	*	*
2F	.	2A	.	2c	lux	4a	or-
.	.	.	.	.	.	4f	.
=52	=52	=52	=52	=52	=52	=52	=52
2BB-y	.	2B-y	or-	2r	.	8gL	.
.	.	.	.	.	.	8f	.
.	.	.	.	.	.	8e	.
.	.	.	.	.	.	8dJ	.
4r	.	4A	.	8FL	est	4c	.
.	.	.	.	8G	.	.	.
4D	or-	4F	.	8A	.	2f	.
.	.	.	.	8B-yJ	.	.	.
2C	.	2G	.	2c	.	.	.
.	.	.	.	.	.	4e	.
=53	=53	=53	=53	=53	=53	=53	=53
4FF	.	4F	.	2r	.	4d	.
4.AA	.	4E	.	.	.	2c	.
.	.	4F	.	2C	or-	.	.
8GG	.	.	.	.	.	.	.
2FF	.	4A	.	.	.	8B-yL	.
.	.	.	.	.	.	8AJ	.
.	.	2G	.	4D	.	4.B-y	.
4EE	.	.	.	4E	.	.	.
.	.	.	.	.	.	8c	.
=54	=54	=54	=54	=54	=54	=54	=54
1FF;	-ta.	1F;	-ta.	1C;	-ta.	1A;	-ta.
!!LO:LB:g=original
!!LO:TX:t=[whole-dot]=[whole]
=55||	=55||	=55||	=55||	=55||	=55||	=55||	=55||
*>B	*>B	*>B	*>B	*>B	*>B	*>B	*>B
*M2/2	*	*M2/2	*	*M2/2	*	*M2/2	*
*omet(C|)	*	*omet(C|)	*	*omet(C|)	*	*omet(C|)	*
!!section: Gaude gloriosa
1r	.	1F	Gau-	1r	.	[[1f	Gau-
=56	=56	=56	=56	=56	=56	=56	=56
1r	.	2F	.	1r	.	1f]	.
.	.	[2A	.	.	.	.	.
=57	=57	=57	=57	=57	=57	=57	=57
1r	.	4A]	.	1r	.	2.e	.
.	.	4B-y	.	.	.	.	.
.	.	[2c	.	.	.	.	.
.	.	.	.	.	.	4c	.
=58	=58	=58	=58	=58	=58	=58	=58
1r	.	2c]	.	1r	.	1d	.
.	.	2Bnj	.	.	.	.	.
=59	=59	=59	=59	=59	=59	=59	=59
1r	.	1c	-de	1r	.	4.c	-de
.	.	.	.	.	.	8B-y	.
.	.	.	.	.	.	8AL	.
.	.	.	.	.	.	8GJ	.
.	.	.	.	.	.	4F	.
=60	=60	=60	=60	=60	=60	=60	=60
1r	.	2c	glo-	1r	.	4E	.
.	.	.	.	.	.	4F	.
.	.	2B-y	.	.	.	2G	.
!!LO:LB:g=original
=61	=61	=61	=61	=61	=61	=61	=61
1r	.	2.A	-ri-	1r	.	2F	.
.	.	.	.	.	.	4r	.
.	.	4F	.	.	.	[4f	glo-
=62	=62	=62	=62	=62	=62	=62	=62
1r	.	1G	-o-	1r	.	4f]	.
.	.	.	.	.	.	8eL	.
.	.	.	.	.	.	8dJ	.
.	.	.	.	.	.	8eL	.
.	.	.	.	.	.	8d	.
.	.	.	.	.	.	8c	.
.	.	.	.	.	.	8B-yJ	.
=63	=63	=63	=63	=63	=63	=63	=63
1r	.	4F	.	1r	.	4A	-ri-
*	*	*	*	*	*	*col	*
.	.	4.G	.	.	.	4.B-y	.
.	.	8F	.	.	.	8A	.
*	*	*	*	*	*	*Xcol	*
.	.	[4A	.	.	.	[4c	-o
=64	=64	=64	=64	=64	=64	=64	=64
1r	.	4A]	.	1r	.	4c]	.
.	.	2F	.	.	.	4A	.
.	.	.	.	.	.	2G	.
.	.	4E	.	.	.	.	.
=65	=65	=65	=65	=65	=65	=65	=65
1FF	Gau-	1F	-sa,	[1F	Gau-	1F	sa,
=66	=66	=66	=66	=66	=66	=66	=66
*lig	*	*	*	*	*	*	*
2FF	.	1r	.	1F]	.	1r	.
[2AA	.	.	.	.	.	.	.
!!LO:LB:g=original
=67	=67	=67	=67	=67	=67	=67	=67
4AA]	.	1r	.	2.E	.	1r	.
*Xlig	*	*	*	*	*	*	*
4BB-y	.	.	.	.	.	.	.
[2C	.	.	.	.	.	.	.
.	.	.	.	4C	.	.	.
=68	=68	=68	=68	=68	=68	=68	=68
2C]	.	1r	.	1D	.	1r	.
2BBni	.	.	.	.	.	.	.
=69	=69	=69	=69	=69	=69	=69	=69
[1C	-de	1r	.	4C	-de	1r	.
.	.	.	.	4.c	.	.	.
.	.	.	.	8B-y	.	.	.
.	.	.	.	[4A	.	.	.
=70	=70	=70	=70	=70	=70	=70	=70
2C]	.	1r	.	4A]	.	1r	.
.	.	.	.	8GL	.	.	.
.	.	.	.	8FJ	.	.	.
2BB-y	glo-	.	.	8GL	.	.	.
.	.	.	.	8F	.	.	.
.	.	.	.	8E	.	.	.
.	.	.	.	8DJ	.	.	.
=71	=71	=71	=71	=71	=71	=71	=71
2.AA	-ri-	1r	.	2C	.	2r	.
*	*	*	*	*	*	*	*edit
.	.	.	.	[[2F	glo-	2A	glo-
4FF	.	.	.	.	.	.	.
=72	=72	=72	=72	=72	=72	=72	=72
1GG	-o-	1r	.	2F]	.	2.B-y	-ri-
.	.	.	.	2E	-ri-	.	.
.	.	.	.	.	.	4G	.
!!LO:PB:g=original
=73	=73	=73	=73	=73	=73	=73	=73
4.FF	.	1r	.	4F	-o-	4A	-o-
.	.	.	.	2c	.	4B-y	.
8GG	.	.	.	.	.	.	.
4AA	.	.	.	.	.	4c	.
4BB-y	.	.	.	4B-y	.	4d	.
=74	=74	=74	=74	=74	=74	=74	=74
4C	.	1r	.	4A	.	4e	.
4D	.	.	.	4F	.	2f	.
2C	.	.	.	2G	.	.	.
.	.	.	.	.	.	4e	.
=75	=75	=75	=75	=75	=75	=75	=75
[1FF	-sa,	[1F	su-	1F	-sa,	2.f	-sa,
.	.	.	.	.	.	8eL	.
.	.	.	.	.	.	8dJ	.
=76	=76	=76	=76	=76	=76	=76	=76
1FF]	.	1F]	.	1A	.	1c	.
=77	=77	=77	=77	=77	=77	=77	=77
*	*	*	*	*	*	*	*Xedit
1BB-y	su-	2F	.	4.D	.	2.d	su-
.	.	.	.	8E	.	.	.
.	.	[2D	.	2F	.	.	.
.	.	.	.	.	.	4c	.
=78	=78	=78	=78	=78	=78	=78	=78
2GG	.	2D]	.	2G	.	2B-y	.
2FF	.	2F	.	2C	.	2A	.
!!LO:LB:g=original
=79	=79	=79	=79	=79	=79	=79	=79
*	*	*lig	*	*	*	*	*
2C	.	2E	.	4r	.	4G	.
.	.	.	.	4C	su-	2c	.
2AA	.	2C	.	4E	.	.	.
*	*	*Xlig	*	*	*	*	*
.	.	.	.	4F	.	8B-yL	.
.	.	.	.	.	.	8AJ	.
=80	=80	=80	=80	=80	=80	=80	=80
2GG	.	1D	per	2G	.	2B-y	.
4FF	.	.	.	4A	.	4A	.
[4GG	.	.	.	4G	.	[4B-y	.
=81	=81	=81	=81	=81	=81	=81	=81
*	*	*lig	*	*	*	*	*
4GG]	.	2BB-y	.	4.D	.	8B-]L	.
.	.	.	.	.	.	8cJ	.
4BB-y	.	.	.	.	.	4.d	.
.	.	.	.	8E	.	.	.
2AA	.	2C	.	2F	.	.	.
*	*	*Xlig	*	*	*	*	*
.	.	.	.	.	.	8e	.
.	.	.	.	.	.	[4c	.
=82	=82	=82	=82	=82	=82	=82	=82
1GG	.	1D	.	1G	.	4c]	.
.	.	.	.	.	.	4B-y	.
.	.	.	.	.	.	4B-y	.
.	.	.	.	.	.	8AL	.
.	.	.	.	.	.	8B-yJ	.
=83	=83	=83	=83	=83	=83	=83	=83
2.AA	-per	[1C	o-	2E	-per	2.c	-per
.	.	.	.	[2C	.	.	.
8GGL	.	.	.	.	.	8B-yL	.
8FFJ	.	.	.	.	.	8AJ	.
=84	=84	=84	=84	=84	=84	=84	=84
4EE	.	1C]	.	4C]	.	4G	.
*	*	*	*	*col	*	*	*
2FF	.	.	.	4.c	.	4F	.
.	.	.	.	.	.	2G	.
.	.	.	.	8B-y	.	.	.
*	*	*	*	*Xcol	*	*	*
4EE	.	.	.	4G	.	.	.
!!LO:LB:g=original
=85	=85	=85	=85	=85	=85	=85	=85
4FF	o-	2C	.	2A	o-	2c	o-
4AA	.	.	.	.	.	.	.
2GG	.	[2D	.	4B-y	.	2B-y	.
.	.	.	.	4G	.	.	.
=86	=86	=86	=86	=86	=86	=86	=86
4FF	.	2D]	.	4A	.	4A	.
2GG	.	.	.	4G	.	4B-y	.
.	.	2D	.	2B-y	.	2d	.
4BB-y	.	.	.	.	.	.	.
=87	=87	=87	=87	=87	=87	=87	=87
2AA	.	1E	.	4c	.	2c	.
.	.	.	.	4A	.	.	.
4GG	.	.	.	4B-y	.	4B-y	.
[4AA	.	.	.	4A	.	4c	.
=88	=88	=88	=88	=88	=88	=88	=88
4AA]	.	2E	.	2c	.	2e	.
4C	.	.	.	.	.	.	.
2BB-y	.	[2F	.	4d	.	2d	.
.	.	.	.	4B-y	.	.	.
=89	=89	=89	=89	=89	=89	=89	=89
4AA	.	2F]	.	4c	.	4c	.
2BB-y	.	.	.	4B-y	.	4d	.
.	.	2F	.	2d	.	2f	.
4D	.	.	.	.	.	.	.
=90	=90	=90	=90	=90	=90	=90	=90
2C	.	1G	.	4e	.	2e	.
.	.	.	.	4c	.	.	.
4BB-y	.	.	.	4d	.	4d	.
[4C	.	.	.	[4c	.	4e	.
!!LO:LB:g=original
=91	=91	=91	=91	=91	=91	=91	=91
4C]	.	2G	.	2c]	.	2g	.
4E	.	.	.	.	.	.	.
4D	.	2A	.	4.F	.	4f	.
[4F	.	.	.	.	.	[4a	.
.	.	.	.	8G	.	.	.
=92	=92	=92	=92	=92	=92	=92	=92
4F]	.	4F	.	8AL	.	4a]	.
.	.	.	.	8B-yJ	.	.	.
4FF	.	4A	.	2c	.	8gL	.
.	.	.	.	.	.	8fJ	.
2C	.	2G	.	.	.	2e	.
.	.	.	.	4c	.	.	.
=93	=93	=93	=93	=93	=93	=93	=93
1FF	-mnes	1F	-mnes	1A	-mnes	[1f	-mnes
=94	=94	=94	=94	=94	=94	=94	=94
*	*edit	*	*	*	*	*	*
4.FF	spe-	1r	.	1F	spe-	1f]	.
8GG	.	.	.	.	.	.	.
4AA	.	.	.	.	.	.	.
4BB-y	.	.	.	.	.	.	.
=95	=95	=95	=95	=95	=95	=95	=95
*	*	*	*	*lig	*	*	*
4BB-y	-ci-	1r	.	1G	-ci-	1r	.
4C	.	.	.	.	.	.	.
4BB-y	.	.	.	.	.	.	.
[4C	.	.	.	.	.	.	.
=96	=96	=96	=96	=96	=96	=96	=96
4C]	.	1r	.	1A	.	1r	.
*	*	*	*	*Xlig	*	*	*
4D	.	.	.	.	.	.	.
4C	.	.	.	.	.	.	.
*col	*	*	*	*	*	*	*
[4D	-o-	.	.	.	.	.	.
!!LO:PB:g=original
=97	=97	=97	=97	=97	=97	=97	=97
8D]L	.	1r	.	1B-y	-o-	1r	.
8C	.	.	.	.	.	.	.
*Xcol	*	*	*	*	*	*	*
8BB-y	.	.	.	.	.	.	.
8AAJ	.	.	.	.	.	.	.
2GG	.	.	.	.	.	.	.
=98	=98	=98	=98	=98	=98	=98	=98
4FF	.	1r	.	2A	.	1r	.
2F	.	.	.	.	.	.	.
.	.	.	.	4F	.	.	.
[4G	.	.	.	[4B-y	.	.	.
=99	=99	=99	=99	=99	=99	=99	=99
4G]	.	1r	.	4B-]	.	1r	.
2F	.	.	.	4A	.	.	.
.	.	.	.	2G	.	.	.
4E	.	.	.	.	.	.	.
=100	=100	=100	=100	=100	=100	=100	=100
2F	-sa,	1r	.	4.F	.	1f	spe-
.	.	.	.	8G	.	.	.
2r	.	.	.	4A	.	.	.
.	.	.	.	[4B-y	.	.	.
=101	=101	=101	=101	=101	=101	=101	=101
*	*	*	*	*	*	*lig	*
1r	.	1r	.	4B-]	.	1g	-ci-
.	.	.	.	4c	.	.	.
.	.	.	.	4B-y	.	.	.
.	.	.	.	[4c	.	.	.
=102	=102	=102	=102	=102	=102	=102	=102
2r	.	1r	.	4c]	.	1a	.
*	*	*	*	*	*	*Xlig	*
.	.	.	.	4d	.	.	.
*	*Xedit	*	*	*	*	*	*
2FF	spe-	.	.	4c	.	.	.
.	.	.	.	[4d	.	.	.
!!LO:LB:g=original
=103	=103	=103	=103	=103	=103	=103	=103
*lig	*	*	*	*	*	*	*
1GG	-ci-	1r	.	8d]L	.	1b-y	-o-
.	.	.	.	8c	.	.	.
.	.	.	.	8B-y	.	.	.
.	.	.	.	8AJ	.	.	.
.	.	.	.	2G	.	.	.
=104	=104	=104	=104	=104	=104	=104	=104
1AA	.	1r	.	2F	-sa,	2a	.
*Xlig	*	*	*	*	*	*	*
.	.	.	.	2r	.	2f	.
=105	=105	=105	=105	=105	=105	=105	=105
1BB-y	-o-	1r	.	1r	.	4.g	.
.	.	.	.	.	.	16fLL	.
.	.	.	.	.	.	16eJJ	.
.	.	.	.	.	.	2d	.
=106	=106	=106	=106	=106	=106	=106	=106
4AA	.	1F	spe-	1r	.	4c	.
4FF	.	.	.	.	.	4d	.
4AA	.	.	.	.	.	4c	.
4BB-y	.	.	.	.	.	[4d	.
=107	=107	=107	=107	=107	=107	=107	=107
*	*	*lig	*	*	*	*	*
2GG	-sa,	1G	-ci-	1r	.	4d]	.
.	.	.	.	.	.	4e	.
2r	.	.	.	.	.	4d	.
.	.	.	.	.	.	[4e	.
=108	=108	=108	=108	=108	=108	=108	=108
1r	.	1A	.	1r	.	4e]	.
*	*	*Xlig	*	*	*	*	*
.	.	.	.	.	.	4f	.
.	.	.	.	.	.	4e	.
.	.	.	.	.	.	[4f	.
!!LO:LB:g=original
=109	=109	=109	=109	=109	=109	=109	=109
2r	.	1B-y	-o-	1r	.	4f]	.
.	.	.	.	.	.	4.g	.
2EE	spe-	.	.	.	.	.	.
.	.	.	.	.	.	8fL	.
.	.	.	.	.	.	8e	.
.	.	.	.	.	.	8dJ	.
=110	=110	=110	=110	=110	=110	=110	=110
4.FF	.	2A	.	1r	.	2c	-sa,
8GG	.	.	.	.	.	.	.
4AA	.	4c	.	.	.	4c	.
4BB-y	.	4B-y	.	.	.	[4f	spe-
=111	=111	=111	=111	=111	=111	=111	=111
2C	-ci-	2G	.	2c	spe-	4f]	.
.	.	.	.	.	.	4e	.
4D	.	4F	.	4A	.	4f	.
[4E	.	[4B-y	.	[4G	.	[4g	-ci-
=112	=112	=112	=112	=112	=112	=112	=112
4E]	.	4B-]	.	4G]	.	4g]	.
4F	.	4A	.	2c	-ci-	2f	.
2C	.	2G	.	.	.	.	.
.	.	.	.	4c	.	4e	.
=113	=113	=113	=113	=113	=113	=113	=113
1FF	-o-	[1Fl;	-sa,	2A	-o-	2.f	-o-
.	.	.	.	4A	.	.	.
.	.	.	.	4B-y	.	8eL	.
.	.	.	.	.	.	8dJ	.
!!LO:LB:g=original
=114	=114	=114	=114	=114	=114	=114	=114
2AA	.	1F_	.	2c	.	2c	.
[2BB-y	.	.	.	2d	.	4r	.
.	.	.	.	.	.	[4B-y	.
=115	=115	=115	=115	=115	=115	=115	=115
4BB-]	.	1F_	.	4d	.	4B-]	.
4AA	.	.	.	4c	.	4c	.
2BB-y	.	.	.	2B-y	.	2d	.
=116	=116	=116	=116	=116	=116	=116	=116
1FFl;	-sa,	1F]	.	1Al;	-sa,	1cl;	-sa,
=117||	=117||	=117||	=117||	=117||	=117||	=117||	=117||
*>C	*>C	*>C	*>C	*>C	*>C	*>C	*>C
!!section: Vale, vale
*lig	*	*	*	*	*	*	*
1FF	va-	1r	.	1r	.	1r	.
=118	=118	=118	=118	=118	=118	=118	=118
1GG	.	1r	.	1r	.	1r	.
*Xlig	*	*	*	*	*	*	*
=119	=119	=119	=119	=119	=119	=119	=119
*	*	*	*	*lig	*	*	*
2AA	.	1r	.	1F	va-	1r	.
[2BB-y	.	.	.	.	.	.	.
!!LO:PB:g=original
=120	=120	=120	=120	=120	=120	=120	=120
2BB-]	.	1r	.	1G	.	1r	.
*	*	*	*	*Xlig	*	*	*
[2C	.	.	.	.	.	.	.
=121	=121	=121	=121	=121	=121	=121	=121
*	*	*	*	*	*	*lig	*
*	*	*	*	*lig	*	*	*
4C]	.	1r	.	1A	.	1c	va-
4BB-y	.	.	.	.	.	.	.
[2AA	.	.	.	.	.	.	.
=122	=122	=122	=122	=122	=122	=122	=122
2AA]	.	1r	.	1B-y	.	1d	.
*	*	*	*	*Xlig	*	*Xlig	*
2GG	.	.	.	.	.	.	.
=123	=123	=123	=123	=123	=123	=123	=123
2AA	-le,	1r	.	2A	.	2c	.
2r	.	.	.	4A	.	4c	.
.	.	.	.	[4B-y	.	[4d	.
=124	=124	=124	=124	=124	=124	=124	=124
1r	.	1r	.	8B-]L	.	8d]L	.
.	.	.	.	8A	.	8c	.
.	.	.	.	8G	.	8B-y	.
.	.	.	.	8FJ	.	8AJ	.
.	.	.	.	2G	.	2B-y	.
=125	=125	=125	=125	=125	=125	=125	=125
*	*edit	*	*	*	*	*	*
*	*	*lig	*	*	*	*	*
4.FF	va-	[1F	va-	2A	-le,	2A	-le,
8GG	.	.	.	.	.	.	.
4AA	.	.	.	2r	.	2r	.
4BB-y	.	.	.	.	.	.	.
!!LO:LB:g=original
=126	=126	=126	=126	=126	=126	=126	=126
4FF	.	1F]	.	1r	.	1r	.
4.BB-y	.	.	.	.	.	.	.
8C	.	.	.	.	.	.	.
4D	.	.	.	.	.	.	.
=127	=127	=127	=127	=127	=127	=127	=127
4.C	.	[1G	.	1r	.	1r	.
8BB-y	.	.	.	.	.	.	.
4GG	.	.	.	.	.	.	.
[4C	.	.	.	.	.	.	.
=128	=128	=128	=128	=128	=128	=128	=128
4C]	.	1G]	.	1r	.	1r	.
*	*	*Xlig	*	*	*	*	*
8BB-yL	.	.	.	.	.	.	.
8AAJ	.	.	.	.	.	.	.
2GG	.	.	.	.	.	.	.
=129	=129	=129	=129	=129	=129	=129	=129
*	*	*lig	*	*	*	*	*edit
2FF	-le,	[1A	.	1r	.	4.c	va-
.	.	.	.	.	.	8d	.
2r	.	.	.	.	.	4e	.
.	.	.	.	.	.	4f	.
=130	=130	=130	=130	=130	=130	=130	=130
1r	.	1A]	.	1r	.	4c	.
.	.	.	.	.	.	4.f	.
.	.	.	.	.	.	8g	.
.	.	.	.	.	.	4a	.
=131	=131	=131	=131	=131	=131	=131	=131
1r	.	[1B-y	.	1r	.	4.g	.
.	.	.	.	.	.	8f	.
.	.	.	.	.	.	4d	.
.	.	.	.	.	.	[4g	.
!!LO:LB:g=original
=132	=132	=132	=132	=132	=132	=132	=132
2r	.	1B-]	.	2r	.	4g]	.
*	*	*Xlig	*	*	*	*	*
.	.	.	.	.	.	8fL	.
.	.	.	.	.	.	8eJ	.
*	*Xedit	*	*	*	*edit	*	*
2GG	val-	.	.	2G	va-	2d	.
=133	=133	=133	=133	=133	=133	=133	=133
4.AA	.	2A	.	4.E	.	2c	-le
8BB-y	.	.	.	8D	.	.	.
4C	.	4A	.	4E	.	2r	.
*	*	*	*	*lig	*	*	*
[4D	.	[4B-y	-le,	[4F	.	.	.
=134	=134	=134	=134	=134	=134	=134	=134
8D]L	.	8B-]L	.	8F]L	.	2r	.
8C	.	8A	.	8E	.	.	.
*	*	*	*	*Xlig	*	*	*
8BB-y	.	8G	.	8D	.	.	.
8AAJ	.	8FJ	.	8CJ	.	.	.
*	*	*	*	*	*	*	*Xedit
2BB-y	.	2G	.	2D	.	2d	val-
=135	=135	=135	=135	=135	=135	=135	=135
2.AA	.	1A	.	2E	-le	2.c	.
.	.	.	.	2C	.	.	.
4BB-y	.	.	.	.	.	4d	.
=136	=136	=136	=136	=136	=136	=136	=136
*	*	*	*edit	*	*	*	*
4C	.	2A	va-	1r	.	4e	.
4D	.	.	.	.	.	4f	.
4C	.	[2A	.	.	.	4e	.
*	*	*	*	*	*	*lig	*
[4D	.	.	.	.	.	[4f	.
=137	=137	=137	=137	=137	=137	=137	=137
4D]	.	2A]	.	2r	.	4f]	.
4F	.	.	.	.	.	2d	.
*	*	*	*	*	*	*Xlig	*
*	*	*	*	*	*Xedit	*	*
2E	.	2G	.	2C	val-	.	.
.	.	.	.	.	.	4c	.
!!LO:LB:g=original
=138	=138	=138	=138	=138	=138	=138	=138
2D	.	[1A	-le	2F	.	2d	.
4C	.	.	.	4.A	.	4e	.
4D	.	.	.	.	.	4f	.
.	.	.	.	8B-y	.	.	.
=139	=139	=139	=139	=139	=139	=139	=139
4C	.	1A]	.	8cL	.	4e	.
.	.	.	.	8B-y	.	.	.
2D	.	.	.	8A	.	2f	.
.	.	.	.	8GJ	.	.	.
.	.	.	.	4.F	.	.	.
8CL	.	.	.	.	.	8eL	.
8BB-yJ	.	.	.	8G	.	8dJ	.
=140	=140	=140	=140	=140	=140	=140	=140
4AA	.	1c	.	4.A	.	4.c	.
4F	.	.	.	.	.	.	.
.	.	.	.	8F	.	8d	.
4E	.	.	.	4G	.	4e	.
4F	.	.	.	4A	.	4c	.
=141	=141	=141	=141	=141	=141	=141	=141
*	*	*	*Xedit	*	*	*	*
4E	.	2c	val-	4G	.	4g	.
2F	.	.	.	4F	.	2a	.
.	.	[2c	.	4.A	.	.	.
8EL	.	.	.	.	.	8gL	.
8DJ	.	.	.	8B-y	.	8fJ	.
=142	=142	=142	=142	=142	=142	=142	=142
4C	.	2c]	.	4c	.	4.e	.
4E	.	.	.	2G	.	.	.
.	.	.	.	.	.	8c	.
*	*	*lig	*	*	*	*	*
2D	.	2B-y	.	.	.	2f	.
.	.	.	.	4F	.	.	.
=143	=143	=143	=143	=143	=143	=143	=143
*	*	*	*	*lig	*	*	*
1C	-de	2c	.	2G	-de	[1e	-de
*	*	*Xlig	*	*	*	*	*
.	.	[2c	.	2E	.	.	.
*	*	*	*	*Xlig	*	*	*
!!LO:PB:g=original
=144	=144	=144	=144	=144	=144	=144	=144
2AA	.	2c]	.	2F	.	2e]	.
[2GG	.	[2B-y	.	[2G	.	[2d	de-
=145	=145	=145	=145	=145	=145	=145	=145
2GG]	.	2B-]	.	2G]	.	4d]	.
.	.	.	.	.	.	4e	.
2FF	de-	2A	-de	[2C	de-	2f	.
=146	=146	=146	=146	=146	=146	=146	=146
1C	-co-	1G	.	4C]	.	2.g	-co-
.	.	.	.	4D	.	.	.
.	.	.	.	2E	.	.	.
.	.	.	.	.	.	4e	.
=147	=147	=147	=147	=147	=147	=147	=147
*lig	*	*	*	*	*	*	*
2D	.	2F	de-	2F	-co-	2d	.
2AA	.	[2A	-co-	[2E	.	2c	.
=148	=148	=148	=148	=148	=148	=148	=148
1BB-y	.	2A]	.	2E]	.	2.d	.
.	.	2G	.	2D	.	.	.
.	.	.	.	.	.	4B-y	.
=149	=149	=149	=149	=149	=149	=149	=149
1AA;	-ra,	1A;	-ra,	1E;	-ra,	1c;	-ra,
*Xlig	*	*	*	*	*	*	*
!!LO:LB:g=original
!!LO:TX:t=[whole]=[whole-dot]
=150||	=150||	=150||	=150||	=150||	=150||	=150||	=150||
*>D	*>D	*>D	*>D	*>D	*>D	*>D	*>D
*M3/2	*	*M3/2	*	*M3/2	*	*M3/2	*
*omet(3)	*	*omet(3)	*	*omet(3)	*	*omet(3)	*
!!section: Et pro nobis
1.r	.	1.r	.	1E	et	1c	et
.	.	.	.	2D	pro	2B-y	pro
=151	=151	=151	=151	=151	=151	=151	=151
1.r	.	1.r	.	2E	.	2c	.
.	.	.	.	1F	no-	2.d	no-
.	.	.	.	.	.	4c	.
=152	=152	=152	=152	=152	=152	=152	=152
1.r	.	1.r	.	2E	.	1c	.
.	.	.	.	1D	.	.	.
.	.	.	.	.	.	2Bni	.
=153	=153	=153	=153	=153	=153	=153	=153
1FF	et	1A	et	1C	-bis,	1c	-bis,
*	*	*	*	*	*	*	*edit
2C	pro	2G	pro	2r	.	2e	et
=154	=154	=154	=154	=154	=154	=154	=154
*	*	*	*	*	*edit	*	*
*	*	*	*	*	*	*lig	*
2AA	.	2A	.	2c	et	2f	pro
1GG	no-	1B-y	no-	1d	pro	2.g	.
*	*	*	*	*	*	*Xlig	*
.	.	.	.	.	.	4f	.
=155	=155	=155	=155	=155	=155	=155	=155
*	*	*	*	*lig	*	*	*
*lig	*	*lig	*	*	*	*	*
2AA	.	2A	.	2c	no-	1f	no-
2BB-y	.	1G	.	2d	.	.	.
*Xlig	*	*Xlig	*	*Xlig	*	*	*
2C	.	.	.	2c	.	2e	.
!!LO:LB:g=original
=156	=156	=156	=156	=156	=156	=156	=156
1D	-bis	1.F	-bis	1.A	-bis	1.f	-bis
2BB-y	.	.	.	.	.	.	.
=157	=157	=157	=157	=157	=157	=157	=157
1E-i	sem-	1G	sem-	1.r	.	1.r	.
2D	.	2F	.	.	.	.	.
=158	=158	=158	=158	=158	=158	=158	=158
*	*	*	*	*	*	*	*Xedit
*	*	*lig	*	*	*	*	*
1C	.	2E	-per	1.r	.	1g	sem-
.	.	1D	.	.	.	.	.
*	*	*Xlig	*	*	*	*	*
2BB-y	.	.	.	.	.	2f	.
=159	=159	=159	=159	=159	=159	=159	=159
*	*	*	*	*	*Xedit	*	*
*lig	*	*	*	*	*	*lig	*
2C	-per	1.r	.	1c	sem-	2e	-per
1GG	.	.	.	.	.	1d	.
*Xlig	*	*	*	*	*	*Xlig	*
.	.	.	.	2Bni	.	.	.
=160	=160	=160	=160	=160	=160	=160	=160
1.r	.	2.C	Chri-	1c	-per	1c	.
.	.	4D	.	.	.	.	.
.	.	2E	.	2G	.	2r	.
=161	=161	=161	=161	=161	=161	=161	=161
1FF	Chri-	1F	.	2.A	Chri-	2.c	Chri-
.	.	.	.	4G	.	4d	.
2C	.	2G	.	2E	.	2e	.
!!LO:LB:g=original
=162	=162	=162	=162	=162	=162	=162	=162
*lig	*	*	*	*	*	*	*
2AA	.	1A	.	2.C	.	1f	.
2FF	.	.	.	.	.	.	.
*Xlig	*	*	*	*	*	*	*
.	.	.	.	4D	.	.	.
2C	.	2G	.	2E	.	2g	.
=163	=163	=163	=163	=163	=163	=163	=163
1FF	-stum	2F	.	1F	-stum	1a	-stum
.	.	1c	-stum	.	.	.	.
2r	.	.	.	2C	ex-	2g	ex-
=164	=164	=164	=164	=164	=164	=164	=164
*	*	*	*	*	*	*lig	*
2FF	ex-	2A	ex-	2D	.	2f	.
1EE-	.	2.B-y	.	2.E-	.	2.g	.
*	*	*	*	*	*	*Xlig	*
.	.	4c	.	4C	.	4f	.
=165	=165	=165	=165	=165	=165	=165	=165
2FF	.	2A	.	1C	-o-	1f	-o-
1C	-o-	1G	-o-	.	.	.	.
.	.	.	.	2c	.	2e	.
=166	=166	=166	=166	=166	=166	=166	=166
[1.FFl	-ra.	[1.Fl	-ra.	2.A	.	[1.fl	-ra.
.	.	.	.	4B-y	.	.	.
.	.	.	.	2d	.	.	.
=167	=167	=167	=167	=167	=167	=167	=167
1.FF]	.	1.F]	.	1.cl	-ra.	1.f]	.
==	==	==	==	==	==	==	==
*-	*-	*-	*-	*-	*-	*-	*-
!!!system-decoration: [*]
!!!RDF**kern: j = editorial accidental, optional, paren up
!!!RDF**kern: i = editorial accidental
!!!RDF**kern: l = terminal breve
!!!PTL: Gaspar van Weerbeke: Collected Works. IV. Motets
!!!ISBN: 978-1-59551-500-1 / 1-59551-500-3
!!!PPR: American Institute of Musicology
!!!PC#: Corpus Mensurabilis Musicae 106/IV
!!!PDT: 2010
!!!PED: Pavanello, Agnese
!!!YEC: Copyright 2008, Pavanello, Agnese
!!!YEM: CC-BY-NC 4.0 (https://creativecommons.org/licenses/by-nc/4.0/legalcode)
!!!EED: Mair-Gruber, Roland
!!!EEV: 2021/08/03
!!!muse2ps: C^@{COM}^i2I150v90,90,90,120c122z18l2700t130
